packages/foundations/assets/icons/functional/images/food/cup.svg

<svg xmlns="http://www.w3.org/2000/svg" width="32" height="32" fill="none"><path fill="#1A1C1F" fill-rule="evenodd" d="M14.613 2.084c-.174.073-.413.302-.524.503-.08.143-.091.488-.104 3.248-.017 3.319-.003 3.533.243 3.826.16.191.501.363.72.364.353.003.734-.257.898-.612.092-.199.098-.416.099-3.409.002-3.15 0-3.2-.111-3.431a.94.94 0 0 0-.811-.528 1.2 1.2 0 0 0-.41.039M10.8 4.053c-.24.054-.484.195-.606.349-.201.256-.227.604-.21 2.78.014 1.811.027 2.091.105 2.231.478.865 1.657.7 1.856-.259.041-.198.056-.954.045-2.337-.016-1.952-.022-2.053-.128-2.257-.198-.379-.657-.599-1.062-.507m7.947-.003c-.385.092-.629.349-.716.751-.036.168-.058 1.034-.058 2.285 0 2.21.024 2.417.306 2.687.419.402.994.4 1.376-.005.278-.295.283-.345.288-2.716.004-2.368-.002-2.426-.279-2.723a1 1 0 0 0-.917-.279M6.04 17.399l.017 5.401.124.373q.56 1.674 2.059 2.4c.876.424.562.406 6.933.389l5.654-.015.426-.15c1.32-.463 2.258-1.472 2.611-2.81.071-.268.099-.666.121-1.747l.029-1.4h.689c1.396 0 2.303-.339 3.137-1.173 1.021-1.022 1.396-2.421 1.012-3.786a3.96 3.96 0 0 0-2.753-2.735l-.419-.118-9.828-.016-9.829-.015zm15.933.839c0 4.192-.002 4.27-.111 4.562-.156.417-.59.873-1.02 1.072l-.335.155H9.464l-.354-.175c-.444-.219-.845-.641-1-1.054-.108-.29-.11-.377-.11-4.56v-4.265h13.973zm3.853-4.108c.4.154.828.546 1.03.945.143.283.157.36.157.845 0 .484-.014.562-.156.842a2.2 2.2 0 0 1-.979.934c-.277.128-.377.143-1.091.162l-.787.02V13.96l.76.026c.613.021.819.048 1.066.144M2.734 28.052c-.416.099-.72.504-.72.96 0 .388.26.77.616.905.105.039 4.159.056 13.37.056s13.265-.017 13.37-.056a1 1 0 0 0 .616-.911.97.97 0 0 0-.435-.819l-.227-.16-13.209-.008c-7.264-.005-13.286.01-13.381.033"/></svg>

<svg width="32" height="32" viewBox="0 0 32 32" fill="none" xmlns="http://www.w3.org/2000/svg"><path d="M14.613 2.084 C 14.439 2.157,14.200 2.386,14.089 2.587 C 14.009 2.730,13.998 3.075,13.985 5.835 C 13.968 9.154,13.982 9.368,14.228 9.661 C 14.388 9.852,14.729 10.024,14.948 10.025 C 15.301 10.028,15.682 9.768,15.846 9.413 C 15.938 9.214,15.944 8.997,15.945 6.004 C 15.947 2.854,15.945 2.804,15.834 2.573 C 15.682 2.261,15.385 2.067,15.023 2.045 C 14.871 2.035,14.687 2.053,14.613 2.084 M10.800 4.053 C 10.560 4.107,10.316 4.248,10.194 4.402 C 9.993 4.658,9.967 5.006,9.984 7.182 C 9.998 8.993,10.011 9.273,10.089 9.413 C 10.567 10.278,11.746 10.113,11.945 9.154 C 11.986 8.956,12.001 8.200,11.990 6.817 C 11.974 4.865,11.968 4.764,11.862 4.560 C 11.664 4.181,11.205 3.961,10.800 4.053 M18.747 4.050 C 18.362 4.142,18.118 4.399,18.031 4.801 C 17.995 4.969,17.973 5.835,17.973 7.086 C 17.973 9.296,17.997 9.503,18.279 9.773 C 18.698 10.175,19.273 10.173,19.655 9.768 C 19.933 9.473,19.938 9.423,19.943 7.052 C 19.947 4.684,19.941 4.626,19.664 4.329 C 19.441 4.090,19.061 3.974,18.747 4.050 M6.040 17.399 L 6.057 22.800 6.181 23.173 C 6.553 24.288,7.241 25.090,8.240 25.573 C 9.116 25.997,8.802 25.979,15.173 25.962 L 20.827 25.947 21.253 25.797 C 22.573 25.334,23.511 24.325,23.864 22.987 C 23.935 22.719,23.963 22.321,23.985 21.240 L 24.014 19.840 24.703 19.840 C 26.099 19.840,27.006 19.501,27.840 18.667 C 28.861 17.645,29.236 16.246,28.852 14.881 C 28.479 13.556,27.444 12.528,26.099 12.146 L 25.680 12.028 15.852 12.012 L 6.023 11.997 6.040 17.399 M21.973 18.238 C 21.973 22.430,21.971 22.508,21.862 22.800 C 21.706 23.217,21.272 23.673,20.842 23.872 L 20.507 24.027 14.986 24.027 L 9.464 24.027 9.110 23.852 C 8.666 23.633,8.265 23.211,8.110 22.798 C 8.002 22.508,8.000 22.421,8.000 18.238 L 8.000 13.973 14.987 13.973 L 21.973 13.973 21.973 18.238 M25.826 14.130 C 26.226 14.284,26.654 14.676,26.856 15.075 C 26.999 15.358,27.013 15.435,27.013 15.920 C 27.013 16.404,26.999 16.482,26.857 16.762 C 26.664 17.143,26.280 17.509,25.878 17.696 C 25.601 17.824,25.501 17.839,24.787 17.858 L 24.000 17.878 24.000 15.919 L 24.000 13.960 24.760 13.986 C 25.373 14.007,25.579 14.034,25.826 14.130 M2.734 28.052 C 2.318 28.151,2.014 28.556,2.014 29.012 C 2.014 29.400,2.274 29.782,2.630 29.917 C 2.735 29.956,6.789 29.973,16.000 29.973 C 25.211 29.973,29.265 29.956,29.370 29.917 C 29.728 29.781,29.986 29.400,29.986 29.006 C 29.986 28.671,29.835 28.387,29.551 28.187 L 29.324 28.027 16.115 28.019 C 8.851 28.014,2.829 28.029,2.734 28.052 " fill="#1A1C1F" stroke="none" fill-rule="evenodd"></path></svg>
